X:1
T:B minor Samuel Holyoke, 1791
T:Anonymous Probably English, before 1791     86. 86. (C. M.)
T:Laindon Transcribed from Harmonia Americana, 1791.
%%score [ 1 2 3 4 ]
L:1/8
Q:1/4=100
M:4/4
K:D
V:1 treble nm="Treble" snm="Tr."
V:2 treble nm="Counter" snm="C."
V:3 treble-8 nm="Tenor" snm="T."
V:4 bass nm="Bass" snm="B."
V:1
 B2 | d2 ^A2 F2 AB | cd ed c2 c2 | d2 A2 d2 cB | ^A4 z2 A2 | F2 B2 e2 f2 | d2 ed{d} c2 z d | %7
 d2 c2 B2 ^A2 | B4 z2 B2 | d2 cB A3 f | e>d cB ^A2 =A2 | F2 d2 c2 B2 | ^A4 z2 F2 | %13
 !wedge!B3 B c2 d2 | cB AG F3 e | f>e d2 cB ^A2 | B8 |] %17
V:2
"^1. No songs of triumph now be sung,  Cease all your sprightly airs;  Let sorrow silence every tongue,  And joy dissolve to tears.  If  at  this  sight  we" F2 | %1
 D2 F2 F2 FG | AG EG ^A2 G2 | F2 E2 D2 EG | F4 z2 F2 | B2 B2 A2 F2 | G2 E2{G} F2 z F | %7
 B2 A2 B2 F2 | B4 z2 F2 | D2 CE F3 B | %10
"^1. don’t   re – pent,   What other  sight  can  move?      Un–grate–ful should we not relent,   And  pay   such  love  with  love?\n" BA/G/ ED F2 E2 | %11
 F2 F2 A2 B2 | F4 z2 F2 | G3 F E2 F2 | AB AG A3 A | B>E F2 GB ^A2 | B8 |] %17
V:3
"^2. See where fortunately for us,  Our bleeding Savior nailed!  Ah see, while death he suffers thus,  How much our sins prevailed. If still contrition" F2 | %1
 B2 c2 d2 cB | ed cB ^A2 G2 | F2 E2 FB ed | c4 z2 c2 | d2 d2 c2 c2 | c>B B2{B} ^A2 z F | %7
 B2 e2 d2 c2 | B4 z2 F2 | B2 AG F3 F | %10
"^2.  is           for –  got,      And  we  our  sins re –   tain;      As   far   as   it    concerns     our    lot,     He    yet     but   died    in     vain.\n" Bc/d/ ed c2 c2 | %11
 d2 f2 e2 d2 | c4 z2 A2 | !wedge!d3 d e2 f2 | ed cB A3 A | d>e f2 ed c2 | B8 |] %17
V:4
 B,,2 | B,,2 F,2 B,2 F,G, | A,2 E,2 F,2 E,2 | D,2 C,2 B,,2 C,2 | F,4 z2 F,2 | B,2 G,2 A,2 F,2 | %6
 G,2 E,2 F,2 z D, | G,2 A,2 B,2 F,2 | B,,4 z2 B,,2 | B,,2 C,2 D,3 D, | E,2 E,2 F,2 A,2 | %11
"^___________________________________________\nEdited by B. C.Johnston, 2016\n   1. Sixteenth grace-notes following converted to regular sixteenth notes in measures 11 and 16.\n   2. \nTreble \nand \nTenor \nparts exchanged.\n   3. \nCounter\n part written.\n   4. Stanzas numbered 2, from  J. Gleave. 1806. A Collection of Hymns and Spiritual Songs upon Several Occasions: \n        For the Use of St. John’s Church, Manchester. Manchester, [England]: S. Russell." B,2 B,,2 A,,2 D,>E, | %12
 F,4 z2 F,2 | !wedge!G,3 F, E,2 D,2 | A,,2 A,,2 D,3 C, | B,,>C, D,2 E,2 F,2 | B,,8 |] %17

